X:1
T:Title
%%score { ( 1 3 ) | ( 2 4 ) }
L:1/8
M:4/4
K:G
V:1 treble nm="Grand Piano"
V:3 treble 
V:2 bass 
V:4 bass 
V:1
 z4 z2[Q:1/4=108] [B,D]2 | [B,DG]2 [B,D]2 [B,DG]2 [DGB]2 | [GBd]4 [GBd]2 [Gce]2 | %3
 [GBd]2 [DGB]2 [DGB]2 [CFA]2 | [B,DG]6 [B,D]2 | [B,DG]2 [B,D]2 [B,DG]2 [DGB]2 | %6
 [GBd]4 [GBd]2 [Gce]2 | [Bd]2 [GB]2 [GA]2 [GA^c]2 | [FAd]6 [FAd]2 | [FAd]2 [FAc]2 [FAc]2 [FAc]2 | %10
 [EGc]2 [DGB]2 z2 [DGB]2 | [^DFB]2 [DFB]2 [DFB]2 [DFA]2 | [EG]6 [EG]2 | [EG]2 [EG]2 [DF]2 [CE]2 | %14
 [B,D]2 [B,DG]2 z2 [EA]2 | [GB]2 [Fc]2 [GB]2 [CFA]2 |[M:3/4] [B,DG]6 |[M:1/4] B2 |[M:4/4] d6 z2 | %19
 e2 d2 z2 B2 | [^GB]2 [GB]2 [Ac]2 B2 | e6 A2 | [FA]2 [FA]2 [GB]2 [Ac]2 | %23
[M:5/4] [Bd]2 [A^d]2 [Ge]3 [Af]3 |[M:4/4] [Bg]2 [Gd]2 [DGB] .[CFA]3 |[M:3/4] [G,B,DG]6 |] %26
V:2
 z4 z2 [G,,G,]2 | [G,,G,]4 [G,,G,]4 | [G,,G,]4 [G,,G,]2 [C,C]2 | %3
 [D,G,]2 [D,,D,]2 [D,,D,]2 [D,,D,]2 | [G,,G,]6 [G,,G,]2 | [G,,G,]4 [G,,G,]4 | [G,,G,]4 [G,,G,]4 | %7
 [G,,G,]4 [A,,E,]2 [A,,E,]2 | [D,,D,]6 [D,,D,]2 | [D,,D,]4 [D,,D,]4 | %10
 [G,,G,]2 [G,,G,]2 z2 [G,,G,]2 | [B,,B,]2 [B,,B,]2 [B,,B,]2 [B,,B,]2 | [E,B,]6 [E,B,]2 | %13
 [C,C]2 [C,C]2 [C,C]2 [C,G,]2 | [G,,G,]2 [G,,G,]2 z2 [C,C]2 | [D,G,D]2 [D,A,D]2 [D,G,D]2 [D,,D,]2 | %16
[M:3/4] [G,,D,]6 |[M:1/4] z2 |[M:4/4] z2[K:treble] [G,B,]2 [G,B,]2 [G,DG]2 | %19
 [G,CG]2 [G,B,G]2 z2 [G,DG]2 | [E,E]2 [E,E]2 [E,E]2[K:treble] [^G,D]2 | [A,CA]6 [A,CF]2 | %22
 [D,D]2 [D,D]2 [G,D]2 [G,D]2 |[M:5/4] [G,D]2 [F,B,]2 [E,B,]3 [D,D]3 | %24
[M:4/4] [G,D]2 [G,B,]2 .D,2 z D |[M:3/4] G,,6 |] %26
V:3
 x8 | x8 | x8 | x8 | x8 | x8 | x8 | x8 | x8 | x8 | x8 | x8 | x8 | x8 | x8 | x8 |[M:3/4] x6 | %17
[M:1/4] x2 |[M:4/4] z2 G2 G2 B2 | x8 | x8 | x8 | x8 |[M:5/4] x10 |[M:4/4] x8 |[M:3/4] x6 |] %26
V:4
 x8 | x8 | x8 | x8 | x8 | x8 | x8 | x8 | x8 | x8 | x8 | x8 | x8 | x8 | x8 | x8 |[M:3/4] x6 | %17
[M:1/4] x2 |[M:4/4] x2[K:treble] x6 | x8 | x6[K:treble] x2 | x8 | x8 |[M:5/4] x10 | %24
[M:4/4] z4 z D,3 |[M:3/4] x6 |] %26

